assets/images/common/fish-white.svg

<svg width="24" height="24" viewBox="0 0 24 24" fill="none" xmlns="http://www.w3.org/2000/svg">
<path d="M21.4735 10.9919C21.471 10.8769 21.4395 10.7643 21.3817 10.6648C21.2194 10.382 20.8622 10.202 20.3209 10.1297C20.0077 10.088 19.7132 10.0368 19.4456 9.97762C18.6254 9.795 17.7848 9.72007 16.9452 9.7547C16.2388 9.78126 15.5342 9.84516 14.8346 9.94614C14.6863 9.96866 14.5142 9.99611 14.3233 10.0267C12.9059 10.253 10.0222 10.7133 8.23098 10.3584C7.98767 9.89906 7.94574 9.48859 8.10654 9.13727C8.45567 8.37428 9.63774 8.01682 10.0657 7.91023C10.5723 8.68423 11.2163 9.16056 11.9813 9.32687C13.4043 9.63611 14.715 8.7551 14.7701 8.71755C14.8122 8.68876 14.844 8.64725 14.8608 8.5991C14.8776 8.55095 14.8785 8.49869 14.8634 8.44997C14.8484 8.40125 14.8181 8.35863 14.7771 8.32834C14.7361 8.29806 14.6864 8.2817 14.6355 8.28167C14.5061 8.27254 14.3814 8.23005 14.2734 8.15835C14.0352 8.01359 13.8403 7.80733 13.7093 7.56124C13.2217 6.6628 12.5178 6.32786 12.1135 6.20517C12.9364 4.23414 11.8664 2.94583 11.8182 2.88957L11.8116 2.88252C11.5536 2.60454 11.6987 2.10061 11.7 2.09637C11.7136 2.05201 11.7139 2.00468 11.7009 1.96014C11.688 1.91561 11.6624 1.87581 11.6272 1.8456C11.592 1.81538 11.5488 1.79607 11.5028 1.79001C11.4568 1.78395 11.4101 1.79141 11.3683 1.81148C10.2318 2.3555 9.55508 3.36901 9.41094 4.7423C9.35968 5.26362 9.37808 5.78944 9.46564 6.3059C8.91744 6.26911 8.36706 6.28092 7.82094 6.3412C7.60508 6.36237 3.50715 6.80171 1.68837 10.0405C0.887902 11.466 0.813079 13.1774 1.48804 14.6184C2.03863 15.7942 2.94887 16.6989 4.19468 17.3124C3.83056 17.698 3.53162 18.1402 3.30957 18.6217C2.53882 20.2916 0.909573 20.0465 0.841102 20.0353C0.790613 20.0268 0.738718 20.0347 0.693074 20.0579C0.647429 20.0811 0.610453 20.1184 0.5876 20.1642C0.564748 20.21 0.55723 20.262 0.566156 20.3124C0.575082 20.3628 0.599979 20.409 0.637173 20.4442C1.41167 21.1769 2.39969 21.6086 3.36054 21.5407C5.18369 21.4119 6.676 19.8369 7.23258 19.1591C7.46178 18.8762 7.71632 18.6149 7.99303 18.3783C8.00342 18.3794 8.01387 18.3797 8.0243 18.3794C9.18329 18.3055 10.6697 18.3857 10.681 18.3864C10.7202 18.3892 10.7586 18.3911 10.7977 18.3935C10.3537 18.7083 9.98676 19.1195 9.72442 19.5964C9.34091 20.2844 8.35833 21.7211 6.83807 21.7313C7.11178 21.5246 7.32576 21.2489 7.45817 20.9325C7.59059 20.616 7.6367 20.2701 7.59181 19.9301C7.58885 19.8985 7.57965 19.8678 7.56472 19.8399C7.5498 19.8119 7.52945 19.7872 7.50488 19.7672C7.4803 19.7472 7.45199 19.7322 7.42158 19.7233C7.39118 19.7143 7.35929 19.7115 7.32778 19.715C7.29628 19.7185 7.26578 19.7282 7.23807 19.7436C7.21036 19.759 7.18599 19.7797 7.16639 19.8046C7.14679 19.8295 7.13234 19.8581 7.12389 19.8887C7.11544 19.9192 7.11316 19.9511 7.11717 19.9826C7.16225 20.3389 7.07881 20.6996 6.88183 21C6.66858 21.3048 6.35638 21.5263 5.99828 21.627C5.94602 21.6381 5.89899 21.6664 5.8647 21.7073C5.83041 21.7483 5.81085 21.7996 5.80913 21.8529C5.80742 21.9063 5.82365 21.9588 5.85524 22.0018C5.88683 22.0449 5.93195 22.0762 5.98339 22.0906C6.26102 22.1698 6.54821 22.2106 6.83694 22.2119C8.60058 22.2119 9.71087 20.6015 10.1416 19.8286C10.3923 19.369 10.7557 18.9807 11.1977 18.7001C11.3651 18.597 11.5407 18.5078 11.7226 18.4334C11.7255 18.4322 11.7278 18.4304 11.7305 18.4291C11.8052 18.4301 11.88 18.4311 11.9538 18.4311C16.7957 18.4311 19.7228 16.4295 20.8083 15.5127C21.0666 15.2943 21.3937 15.1743 21.7318 15.1738H22.323C22.5709 15.1772 22.814 15.1061 23.0211 14.9698C23.5476 14.6144 23.4745 14.041 23.3448 13.7376C23.3538 13.3726 23.2958 11.6578 21.4735 10.9919ZM6.86355 18.8561C6.46021 19.3472 5.01357 20.9582 3.33054 21.0641C2.68 21.1051 2.05409 20.9171 1.46256 20.5047C2.14536 20.4238 3.16296 20.079 3.74517 18.8176C3.7516 18.8029 4.402 17.3436 5.42016 17.089C5.48115 17.0733 5.53344 17.034 5.56564 16.9799C5.59783 16.9257 5.60733 16.8611 5.59206 16.8C5.57679 16.7388 5.53799 16.6862 5.48411 16.6536C5.43023 16.6209 5.36564 16.6109 5.3044 16.6257C5.04606 16.6938 4.80316 16.8107 4.58877 16.9702C3.34818 16.4049 2.44995 15.5465 1.92054 14.4159C1.31066 13.1141 1.37955 11.5659 2.10477 10.2744C3.80913 7.23915 7.82948 6.82014 7.86986 6.81633C7.87091 6.81633 7.87183 6.81583 7.87289 6.81569C7.87395 6.81555 7.87494 6.81569 7.87593 6.81569C7.88609 6.81449 8.89367 6.69527 9.73141 6.81506C9.77044 6.82058 9.81022 6.81637 9.84723 6.80279C9.88424 6.78922 9.91731 6.7667 9.94351 6.73725C9.9697 6.7078 9.98821 6.67232 9.99737 6.63399C10.0065 6.59565 10.0061 6.55564 9.99604 6.51753C9.86557 5.94756 9.82879 5.36016 9.88713 4.77837C9.99936 3.73889 10.4343 2.96256 11.1821 2.46428C11.1817 2.73531 11.2792 2.99737 11.4567 3.20221C11.5252 3.2855 12.45 4.46341 11.5597 6.2687C11.5426 6.30346 11.5341 6.34187 11.5351 6.38062C11.5362 6.41936 11.5466 6.45728 11.5655 6.49109C11.5845 6.5249 11.6114 6.55359 11.6439 6.57468C11.6764 6.59576 11.7136 6.60861 11.7522 6.61211C11.7617 6.61296 12.7038 6.71051 13.2899 7.78939C13.4619 8.11098 13.7174 8.38028 14.0295 8.56896C14.032 8.57037 14.0345 8.57193 14.0371 8.57348C13.5773 8.78348 12.8344 9.02524 12.0798 8.85979C11.4022 8.71155 10.831 8.25979 10.3823 7.51663C10.3571 7.47499 10.3198 7.44203 10.2754 7.42217C10.231 7.4023 10.1816 7.39647 10.1338 7.40546C10.0553 7.42014 8.20353 7.78042 7.67291 8.93764C7.49644 9.32327 7.48571 9.74454 7.63988 10.1948C7.39795 10.1113 7.17681 9.97667 6.99146 9.80016C6.85182 9.66334 6.74585 9.49599 6.68186 9.31127C6.67223 9.2813 6.65677 9.25354 6.63638 9.22957C6.61598 9.2056 6.59104 9.1859 6.56301 9.1716C6.53497 9.15731 6.50438 9.1487 6.473 9.14627C6.44162 9.14384 6.41007 9.14764 6.38017 9.15744C6.35026 9.16725 6.32259 9.18288 6.29874 9.20342C6.2749 9.22396 6.25535 9.24902 6.24123 9.27714C6.2271 9.30527 6.21868 9.33591 6.21644 9.3673C6.2142 9.3987 6.21819 9.43022 6.22818 9.46007C6.31487 9.71486 6.45968 9.94597 6.65115 10.1351C8.01266 11.5181 12.1669 10.8547 14.3988 10.4983C14.5882 10.468 14.7588 10.4408 14.9062 10.4184C15.589 10.32 16.2764 10.2578 16.9657 10.2319C17.7638 10.199 18.5628 10.2702 19.3425 10.4437C19.6232 10.5058 19.9311 10.5594 20.2577 10.603C20.7564 10.6695 20.8922 10.7916 20.9953 10.989C20.8831 11.0251 20.7673 11.0487 20.65 11.0596C20.4599 11.0781 20.2682 11.0737 20.0792 11.0463C18.8317 10.8897 17.5655 11.0909 16.428 11.6263C15.6363 12.0121 14.9405 12.5694 14.3911 13.2578C13.8725 13.8948 12.4287 15.3784 10.2275 15.396C10.1649 15.3973 10.1053 15.4231 10.0615 15.468C10.0178 15.5128 9.9934 15.573 9.99365 15.6357C9.9939 15.6983 10.0188 15.7584 10.0629 15.8028C10.107 15.8473 10.1668 15.8727 10.2294 15.8735H10.2314C12.6354 15.8544 14.2003 14.2487 14.7614 13.5593C15.2664 12.9257 15.9062 12.4125 16.6342 12.0571C17.6875 11.5609 18.8602 11.3745 20.0154 11.5196C20.2426 11.552 20.4729 11.557 20.7013 11.5344C20.8817 11.5186 21.059 11.4773 21.2278 11.4117C22.3938 11.8021 22.7374 12.6682 22.8343 13.2343C22.4195 12.9537 21.9333 12.7974 21.4327 12.7837H21.4299C18.7784 12.5526 16.5677 14.5761 16.3969 14.7367C14.4235 16.3253 11.2087 16.7273 11.1766 16.7312C11.172 16.7318 11.1672 16.7326 11.1625 16.7333L9.49769 17.035C9.40819 17.0485 8.68635 17.1791 7.72091 17.9825C7.40794 18.2457 7.12084 18.5383 6.86355 18.8561ZM20.4902 15.1564C19.85 15.6859 19.1507 16.1395 18.4061 16.508C18.6013 16.1941 18.7626 15.8603 18.887 15.5122C18.9088 15.4528 18.906 15.3871 18.8794 15.3297C18.8528 15.2722 18.8044 15.2277 18.7449 15.2059C18.7155 15.1951 18.6842 15.1902 18.6529 15.1916C18.6216 15.1929 18.5908 15.2003 18.5623 15.2135C18.5049 15.2401 18.4604 15.2885 18.4386 15.348C17.9586 16.6586 17.3224 16.9867 17.3064 16.9946C17.3043 16.9956 17.3026 16.9971 17.3006 16.998C16.8625 17.1678 16.4157 17.3144 15.9622 17.4372C16.251 17.0758 16.4692 16.6634 16.6055 16.2213C17.0228 14.9424 17.4737 14.509 17.5404 14.4502C18.0578 14.0953 18.6164 13.8046 19.2039 13.5844C19.0588 13.7943 18.934 14.0175 18.8311 14.251C18.8173 14.2795 18.8095 14.3105 18.8081 14.342C18.8068 14.3736 18.8118 14.4051 18.8231 14.4347C18.8343 14.4642 18.8515 14.4912 18.8735 14.5139C18.8955 14.5366 18.9219 14.5545 18.9511 14.5666C19.0096 14.5843 19.0723 14.5822 19.1294 14.5604C19.1865 14.5387 19.2348 14.4987 19.2668 14.4466C19.6676 13.5546 20.106 13.3482 20.1764 13.3198C20.5795 13.246 20.9907 13.2261 21.3991 13.2608C21.4078 13.2616 21.4172 13.2618 21.426 13.2617H21.4325C21.283 13.5029 21.1709 13.7652 21.0999 14.0398C20.982 14.4527 20.7738 14.8341 20.4902 15.1564ZM13.5689 17.874C13.7168 17.7025 13.8379 17.5096 13.9282 17.3019C13.9293 17.2992 13.9305 17.2964 13.9316 17.2937C13.934 17.2877 14.164 16.7139 14.4892 16.3526C15.1815 16.0839 15.8381 15.7309 16.4441 15.3016C16.3338 15.5536 16.2362 15.8111 16.1516 16.0729C15.7277 17.3727 14.9629 17.658 14.8831 17.6847C14.4665 17.7638 14.0291 17.8285 13.5689 17.8743V17.874ZM8.69482 17.8745C9.21767 17.5647 9.5579 17.5091 9.56877 17.5075C9.5704 17.5075 9.57188 17.5066 9.5735 17.5064C9.57513 17.5061 9.57746 17.5063 9.5795 17.5058L11.1028 17.2298C10.9497 17.495 10.7404 17.7234 10.4896 17.899C10.1393 17.8842 9.42463 17.8601 8.69482 17.8748V17.8745ZM11.1725 17.9354C11.3887 17.7038 11.5592 17.4335 11.6751 17.1387C12.3685 17.0177 13.0526 16.8479 13.7221 16.6304C13.6353 16.7869 13.5575 16.9483 13.4892 17.1137C13.2394 17.6794 12.8378 17.8866 12.7268 17.9348C12.2314 17.9576 11.7135 17.9597 11.1723 17.9356L11.1725 17.9354ZM22.754 14.5743C22.6258 14.657 22.4759 14.6995 22.3234 14.6964H21.7318C21.6 14.6969 21.4686 14.7111 21.3398 14.7388C21.4315 14.5553 21.5054 14.3635 21.5603 14.1658C21.6944 13.6788 21.8826 13.4367 21.9646 13.349C22.3234 13.4516 22.6479 13.6492 22.9038 13.9208C22.946 14.0194 23.0652 14.3642 22.7538 14.5745L22.754 14.5743Z" fill="white"/>
<path d="M6.42511 8.56939C6.45459 8.58009 6.4859 8.58488 6.51723 8.58347C6.54856 8.58206 6.5793 8.57448 6.6077 8.56117C6.6361 8.54786 6.66159 8.52907 6.68272 8.5059C6.70385 8.48272 6.7202 8.4556 6.73083 8.42609C6.74448 8.38845 6.75918 8.35115 6.77495 8.31421C6.78722 8.28536 6.79369 8.25437 6.79399 8.22302C6.79429 8.19167 6.78841 8.16056 6.77668 8.13148C6.76496 8.1024 6.74762 8.07592 6.72567 8.05354C6.70371 8.03116 6.67755 8.01332 6.6487 8.00105C6.61985 7.98877 6.58886 7.9823 6.55751 7.98201C6.52616 7.98171 6.49505 7.98759 6.46597 7.99931C6.43689 8.01103 6.41041 8.02837 6.38803 8.05033C6.36565 8.07229 6.34781 8.09844 6.33554 8.12729C6.31634 8.1724 6.29834 8.218 6.28182 8.26367C6.27115 8.29315 6.2664 8.32445 6.26783 8.35577C6.26925 8.38709 6.27684 8.41782 6.29015 8.44621C6.30345 8.4746 6.32222 8.50009 6.34538 8.52122C6.36854 8.54236 6.39563 8.55872 6.42511 8.56939Z" fill="white"/>
<path d="M12.6609 13.2896C12.711 13.2897 12.7597 13.2739 12.8003 13.2446L13.0287 13.0801C13.0792 13.0427 13.1129 12.987 13.1225 12.9249C13.1322 12.8629 13.1171 12.7995 13.0803 12.7486C13.0436 12.6976 12.9883 12.6632 12.9264 12.6527C12.8645 12.6422 12.8009 12.6566 12.7495 12.6926L12.5212 12.8571C12.4801 12.8866 12.4495 12.9284 12.4338 12.9764C12.418 13.0244 12.4179 13.0762 12.4334 13.1243C12.449 13.1724 12.4794 13.2143 12.5203 13.244C12.5611 13.2737 12.6104 13.2897 12.6609 13.2896Z" fill="white"/>
<path d="M8.59622 13.1251C8.72811 13.1251 8.83502 13.0182 8.83502 12.8863C8.83502 12.7544 8.72811 12.6475 8.59622 12.6475C8.46434 12.6475 8.35742 12.7544 8.35742 12.8863C8.35742 13.0182 8.46434 13.1251 8.59622 13.1251Z" fill="white"/>
<path d="M6.02387 14.9559C5.97687 14.9605 5.93231 14.979 5.89582 15.009C5.85933 15.039 5.83254 15.0791 5.81885 15.1243C5.80516 15.1695 5.80518 15.2177 5.8189 15.2629C5.83262 15.3081 5.85943 15.3482 5.89595 15.3781C5.93246 15.4081 5.97703 15.4265 6.02403 15.4312C6.07103 15.4358 6.11834 15.4264 6.15999 15.4041C6.20163 15.3818 6.23574 15.3477 6.258 15.3061C6.28026 15.2644 6.28967 15.2171 6.28504 15.1701C6.28197 15.1389 6.27277 15.1086 6.25798 15.0809C6.24319 15.0533 6.2231 15.0288 6.19884 15.0089C6.17459 14.989 6.14665 14.9741 6.11663 14.965C6.08661 14.9559 6.05509 14.9528 6.02387 14.9559Z" fill="white"/>
<path d="M4.79535 12.1957C4.74836 12.2004 4.7038 12.2189 4.6673 12.2489C4.63081 12.2788 4.60403 12.319 4.59033 12.3642C4.57664 12.4093 4.57666 12.4576 4.59038 12.5028C4.6041 12.548 4.63092 12.5881 4.66743 12.618C4.70394 12.648 4.74852 12.6664 4.79551 12.671C4.84251 12.6757 4.88983 12.6662 4.93147 12.644C4.97312 12.6217 5.00723 12.5876 5.02949 12.5459C5.05175 12.5043 5.06116 12.457 5.05653 12.41C5.05346 12.3788 5.04427 12.3484 5.02949 12.3208C5.0147 12.2931 4.9946 12.2686 4.97034 12.2487C4.94609 12.2288 4.91815 12.2139 4.88812 12.2048C4.85809 12.1957 4.82657 12.1926 4.79535 12.1957Z" fill="white"/>
</svg>

<svg width="24" height="24" fill="none" xmlns="http://www.w3.org/2000/svg"><path d="M21.474 10.992a.68.68 0 00-.092-.327c-.163-.283-.52-.463-1.061-.535a10.504 10.504 0 01-.875-.152 9.671 9.671 0 00-2.5-.223 20.047 20.047 0 00-2.623.272c-1.417.226-4.3.686-6.092.331-.243-.459-.285-.87-.124-1.22.349-.764 1.53-1.121 1.959-1.228.506.774 1.15 1.25 1.915 1.417 1.423.31 2.734-.572 2.79-.61a.239.239 0 00-.136-.435.75.75 0 01-.362-.124 1.552 1.552 0 01-.564-.597c-.487-.898-1.191-1.233-1.595-1.356.822-1.97-.248-3.26-.296-3.315l-.006-.007c-.258-.278-.113-.782-.112-.787a.238.238 0 00-.197-.306.239.239 0 00-.135.021c-1.136.545-1.813 1.558-1.957 2.931a5.9 5.9 0 00.055 1.564 9.31 9.31 0 00-1.645.035c-.216.021-4.314.46-6.133 3.7-.8 1.425-.875 3.136-.2 4.577.55 1.176 1.46 2.08 2.707 2.694a4.89 4.89 0 00-.885 1.31c-.771 1.67-2.4 1.425-2.469 1.413a.24.24 0 00-.204.41c.775.732 1.763 1.164 2.724 1.096 1.823-.13 3.315-1.704 3.872-2.382.229-.283.483-.544.76-.78h.031c1.16-.074 2.646.007 2.657.007l.117.008a3.611 3.611 0 00-1.074 1.202c-.383.688-1.366 2.125-2.886 2.135a1.94 1.94 0 00.754-1.8.238.238 0 10-.475.052A1.51 1.51 0 016.882 21a1.61 1.61 0 01-.884.627.24.24 0 00-.015.464c.278.079.565.12.854.12 1.764 0 2.874-1.61 3.305-2.382a3.089 3.089 0 011.58-1.396c.004 0 .006-.003.008-.004l.224.002c4.842 0 7.769-2.002 8.854-2.918.259-.219.586-.339.924-.34h.591c.248.004.491-.067.698-.203.527-.356.453-.929.324-1.232.009-.365-.05-2.08-1.871-2.746zm-14.61 7.864c-.404.491-1.85 2.102-3.533 2.208-.651.041-1.277-.147-1.868-.56.682-.08 1.7-.425 2.282-1.686.007-.015.657-1.474 1.675-1.729a.239.239 0 00-.116-.463 2.092 2.092 0 00-.715.344c-1.24-.565-2.14-1.423-2.668-2.554-.61-1.302-.541-2.85.184-4.142C3.809 7.24 7.829 6.82 7.87 6.816h.006c.01-.002 1.018-.12 1.855 0a.239.239 0 00.265-.298 5.386 5.386 0 01-.109-1.74c.112-1.04.547-1.815 1.295-2.314 0 .271.097.533.275.738.068.083.993 1.261.103 3.067a.24.24 0 00.192.343c.01.001.952.099 1.538 1.177.172.322.427.591.74.78l.007.004c-.46.21-1.203.452-1.957.287-.678-.148-1.249-.6-1.698-1.343a.24.24 0 00-.248-.112c-.079.015-1.93.375-2.461 1.533-.177.385-.187.807-.033 1.257a1.785 1.785 0 01-.65-.395 1.263 1.263 0 01-.31-.489.239.239 0 10-.453.15c.087.254.232.485.423.674 1.362 1.383 5.516.72 7.748.363l.507-.08c.683-.098 1.37-.16 2.06-.186a9.198 9.198 0 012.377.212c.28.062.588.115.915.159.498.066.634.189.737.386-.112.036-.228.06-.345.07-.19.02-.382.015-.57-.013a6.633 6.633 0 00-3.652.58 5.93 5.93 0 00-2.037 1.632c-.518.637-1.962 2.12-4.164 2.138a.239.239 0 00.002.477h.002c2.404-.019 3.97-1.624 4.53-2.314a5.456 5.456 0 011.873-1.502 6.139 6.139 0 013.381-.537c.228.032.458.037.686.014.18-.015.358-.057.527-.122 1.166.39 1.51 1.256 1.606 1.822a2.63 2.63 0 00-1.401-.45h-.003c-2.652-.231-4.862 1.792-5.033 1.953-1.973 1.588-5.188 1.99-5.22 1.994l-.014.002-1.665.302c-.09.014-.812.144-1.777.948a6.37 6.37 0 00-.857.873zm13.626-3.7c-.64.53-1.34.984-2.084 1.352.195-.314.357-.648.481-.996a.239.239 0 10-.448-.164c-.48 1.31-1.117 1.639-1.133 1.647-.002 0-.003.002-.005.003-.438.17-.885.316-1.339.44a3.69 3.69 0 00.643-1.217c.418-1.279.869-1.712.935-1.77a7.749 7.749 0 011.664-.867 4.03 4.03 0 00-.373.667.233.233 0 00.12.316.276.276 0 00.316-.12c.4-.892.839-1.099.91-1.127a4.619 4.619 0 011.249-.058h.007a2.78 2.78 0 00-.333.778 2.892 2.892 0 01-.61 1.116zm-6.921 2.718c.148-.171.269-.364.36-.572 0-.003.002-.006.003-.008.002-.006.232-.58.557-.941a9.04 9.04 0 001.955-1.051c-.11.252-.208.51-.292.77-.424 1.3-1.19 1.586-1.269 1.613-.416.079-.854.143-1.314.19v-.001zm-4.874 0c.523-.31.863-.365.874-.366l.004-.002h.006l1.524-.276a2.096 2.096 0 01-.613.669 30.255 30.255 0 00-1.795-.024zm2.477.061c.217-.231.387-.502.503-.796a14.86 14.86 0 002.047-.509 4.677 4.677 0 00-.233.484c-.25.565-.651.773-.762.82-.496.024-1.014.026-1.555.002zm11.582-3.36a.766.766 0 01-.43.121h-.592c-.132 0-.263.015-.392.043.091-.184.165-.376.22-.573.134-.487.323-.73.405-.817.358.103.683.3.939.572.042.098.161.443-.15.654z" fill="#fff"/><path d="M6.425 8.57a.239.239 0 00.306-.144c.013-.038.028-.075.044-.112a.239.239 0 00-.44-.187 2.278 2.278 0 00-.053.137.239.239 0 00.143.305zm6.235 4.72c.051 0 .1-.016.14-.045l.229-.165a.238.238 0 00-.28-.387l-.228.164a.238.238 0 000 .387c.04.03.09.046.14.046zm-4.064-.165a.239.239 0 100-.477.239.239 0 000 .477zm-2.572 1.831a.238.238 0 00-.128.422.24.24 0 10.22-.413c-.03-.01-.06-.012-.092-.01zm-1.229-2.76a.24.24 0 10.048.476.24.24 0 00-.048-.476z" fill="#fff"/></svg>
